src/categories-icons-sprite/categories/svg-cat-accessories-umbrella.svg

<svg width="37" height="35" viewBox="0 0 37 35" fill="none" xmlns="http://www.w3.org/2000/svg">
<path class="p-68544F" d="M16.0172 24.0306C15.8213 24.2925 9.06791 33.1458 9.04878 33.1486C8.57545 33.7814 7.87275 34.1749 7.14792 34.2794C6.42309 34.384 5.63785 34.2051 5.00498 33.7318C3.71996 32.7877 3.45587 30.9566 4.42178 29.688C4.55242 29.5133 5.41751 28.3566 5.5808 28.1383C5.75535 28.269 6.91216 29.134 7.11128 29.3001C6.98075 29.4746 6.11555 30.6314 5.97144 30.8469C5.64222 31.2643 5.73025 31.8747 6.16401 32.1821C6.58144 32.5113 7.1917 32.4233 7.49916 31.9895C7.71412 31.7249 14.4866 22.8688 14.4866 22.8688L15.2533 23.4592L15.3187 23.5083L16.0172 24.0306Z" fill="#5FBEFF"/>
<path class="p-564541" d="M16.0175 24.0306C15.8216 24.2925 9.06827 33.1458 9.04913 33.1486C8.5758 33.7814 7.87311 34.1749 7.14828 34.2794L15.3191 23.5082L16.0175 24.0306Z" fill="#76B7E2"/>
<path class="p-FF4040" d="M9.80798 22.6869C9.73988 22.7552 9.69372 22.8397 9.62836 22.927L11.2242 24.0014C11.276 23.955 11.3086 23.9113 11.3385 23.8487C11.6405 23.513 13.7523 21.3039 14.1887 21.6303C14.6253 21.9568 13.1656 24.6366 12.8363 25.054L14.386 26.2131C14.6962 25.7984 16.8734 23.6382 17.2881 23.9483C17.7055 24.2776 16.2403 26.9192 15.9655 27.3093C15.9357 27.372 15.8839 27.4184 15.8514 27.4621L17.3329 28.6893C17.4009 28.621 17.4663 28.5337 17.5125 28.4492C23.7457 20.3653 28.7273 9.81377 32.5548 0.305063C24.5149 6.66328 15.8011 14.4235 9.80798 22.6869Z" fill="#58ADE5"/>
<path class="p-E10000" d="M32.5546 0.304919C28.7272 9.81362 23.7455 20.3652 17.5123 28.4491C17.4662 28.5335 17.4008 28.6208 17.3328 28.6891L15.8513 27.4619C15.8838 27.4182 15.9356 27.3718 15.9654 27.3092C16.2402 26.9191 17.7054 24.2775 17.288 23.9482C16.8733 23.6381 14.696 25.7982 14.3859 26.2129L13.6875 25.6906L32.5546 0.304919Z" fill="#4D98CB"/>
</svg>

<svg width="37" height="35" fill="none" xmlns="http://www.w3.org/2000/svg"><path class="p-68544F" d="M16.017 24.03c-.196.262-6.95 9.116-6.968 9.119a2.907 2.907 0 01-1.901 1.13 2.907 2.907 0 01-2.143-.547 2.873 2.873 0 01-.583-4.044l1.159-1.55c.174.131 1.331.996 1.53 1.162-.13.175-.995 1.331-1.14 1.547a.931.931 0 00.193 1.335.931.931 0 001.335-.193c.215-.264 6.988-9.12 6.988-9.12l.766.59.066.05.698.522z" fill="#5FBEFF"/><path class="p-564541" d="M16.017 24.03c-.195.262-6.949 9.116-6.968 9.119a2.907 2.907 0 01-1.9 1.13l8.17-10.77.698.522z" fill="#76B7E2"/><path class="p-FF4040" d="M9.808 22.687c-.068.068-.114.153-.18.24l1.596 1.074a.45.45 0 00.114-.152c.303-.336 2.414-2.545 2.85-2.219.437.327-1.022 3.007-1.352 3.424l1.55 1.16c.31-.416 2.487-2.576 2.902-2.266.418.33-1.048 2.971-1.322 3.361-.03.063-.082.11-.115.153l1.482 1.227c.068-.068.133-.155.18-.24C23.745 20.365 28.727 9.814 32.554.305 24.515 6.663 15.8 14.424 9.808 22.687z" fill="#58ADE5"/><path class="p-E10000" d="M32.555.305c-3.828 9.509-8.81 20.06-15.043 28.144a1.107 1.107 0 01-.18.24l-1.48-1.227c.032-.044.084-.09.113-.153.275-.39 1.74-3.032 1.323-3.36-.415-.31-2.592 1.85-2.902 2.264l-.698-.522L32.555.305z" fill="#4D98CB"/></svg>
